X:1501
T:My Mother's Coming In
P:Dalkeith House
C:James MacDonald
R:Reel (8x32)
B:RSCDS 15-1
Z:Anselm Lingnau <anselm@strathspey.org>
M:C
L:1/8
K:D
f|"D"d2AB/c/ dAFD|"Em"GE"E7"ed "A"cAA=c|"G"B2GB "D"AdFA|"A7"GEAG "D"FDDf|
  "D"d2AB/c/ dAFD|"Em"GE"E7"ed "A"cAA=c|"G"B2GB "D"AdFA|"A7"GEAG "D"FDD||
g|"D"f2df "A7"eace|"Em"dBed "A"cAA=c|"G"B2GB "D"AdFA|"A7"GBAG "D"FDDg|
  "D"f>efd "A7"eace|"Em"dfed "A"cAA=c|"G"BABG "D"FGA=c|"G"BG"A7"ge "D"fdd|]
